X:30
T: Der verlorene Schuh
N: Q0128
O: Mitteleuropa, Deutschland
N: Kontrafaktur, Ballade wurde vermutlich nach der Melodie des Schwankes
N: "Pfaffenschandlied" gesungen.
R: Ballade, Verfuehrung, verbotene Liebe, Ausrede; Schwank
M: none
L: 1/8
K: G
G2 | G2G2G2G2 | A2A2A2
G2 | B2c2d2B2 | A4G4z2
G2 | G2G2G2G2 | A2A2A2
G2 | B2c2d2B2 | A4G4z2
G2 | d2d2d2c2 | dcB2A4z2
A2 | B2B2Bcd2 | B2c2G4z2
G2A2G2 | d4z2
e2 | d2c2dGA2 | G6

@@@ Tune index: 1528
